X:7897
T:Minuet
T:From "Orfeo"
C:Christoph Willibald Gluck
R:Minuet
Z:Transcribed by Frank Nordberg - http://www.musicaviva.com
F:http://abc.musicaviva.com/tunes/gluck-christoph-willibald/gluck-minuet.abc
M:3/4
L:1/8
K:F
c2ABcf|f2e2d2|c2dcBc|B2A2G2|
fz Az dz|c2E2F2|GBA2GF|F4z2|
a2fgab|a2g2f2|e2fedc|c2=BAG2|
cdefef|e2d2c2|=Bdfgfg|f2e2d2|
g4a2|=b4c'2|gac2d2|c6-|
c2ABcf|f2e2d2|c2dcBc|B2A2G2|
fz Az dz|c2E2F2|GBA2GF|F4z2|]
W:
W:
W:  From Musica Viva - http://www.musicaviva.com
W:  the Internet center for free sheet music downloads.
